src/main/resources/icons/CLionIcons/icons/environments/cygwin.svg

<svg xmlns="http://www.w3.org/2000/svg" width="16" height="16" viewBox="0 0 16 16">
  <g fill="none" fill-rule="evenodd">
    <path fill="#121111" d="M13.8917701,3.376281 L10.0862736,2.00755016 C10.0708843,2.00254717 10.0548205,2 10.0386584,2 L4.73814538,2 C3.38402489,2 2,3.35154678 2,4.76965944 L2,11.2303406 C2,12.5547562 3.4289399,14 4.73814538,14 L10.0386584,14 C10.0564931,14 10.0741954,13.9968984 10.0909943,13.9908304 L13.8964908,12.668849 C14.0368582,12.6181458 14.033666,12.4159088 13.8917701,12.369779 L10.086274,10.958943 C10.0708847,10.95394 10.0548201,10.951393 10.038658,10.951393 L6.714286,10.951393 C5.51985011,10.951393 5,10.3182887 5,9.085714 L5,6.914286 C5,5.68171135 5.51984983,5.037461 6.71428571,5.037461 L10.0386584,5.037461 C10.0548205,5.037461 10.0708843,5.03491399 10.0862736,5.029911 L13.8917701,3.67697 C14.0360755,3.63005691 14.0360755,3.42319409 13.8917701,3.376281 Z"/>
    <path fill="#0F0" fill-rule="nonzero" d="M13.8803587,7.86176225 L8.04924757,6.50461939 C8.03606967,6.50155235 8.02250714,6.5 8.00888889,6.5 L6.16,6.5 C6.07163444,6.5 6,6.56395932 6,6.64285714 L6,7.16298725 C6,7.24188507 6.07163444,7.30584425 6.16,7.30584425 C7.36888889,7.30584425 7.36888889,8.69415575 6.16,8.69415575 C6.07163444,8.69415575 6,8.75811493 6,8.83701275 L6,9.35714286 C6,9.43604068 6.07163444,9.5 6.16,9.5 L8.00888889,9.5 C8.02250714,9.5 8.03606967,9.49844765 8.04924757,9.49538061 L13.8803587,8.13823775 C14.0398804,8.10111038 14.0398804,7.89888962 13.8803587,7.86176225 Z"/>
  </g>
</svg>

<svg xmlns="http://www.w3.org/2000/svg" width="16" height="16" viewBox="0 0 16 16"><rect id="frame" width="16" height="16" fill="none"/><g fill="none" fill-rule="evenodd"><path fill="#121111" d="M13.892 3.376l-3.806-1.368A.154.154 0 0 0 10.04 2h-5.3C3.383 2 2 3.352 2 4.77v6.46C2 12.555 3.429 14 4.738 14h5.3a.154.154 0 0 0 .053-.01l3.805-1.321c.14-.05.138-.253-.004-.3l-3.806-1.41a.154.154 0 0 0-.047-.008H6.714C5.52 10.951 5 10.318 5 9.086V6.914c0-1.232.52-1.877 1.714-1.877h3.325a.154.154 0 0 0 .047-.007l3.806-1.353c.144-.047.144-.254 0-.3z"/><path fill="#0F0" fill-rule="nonzero" d="M13.88 7.862L8.05 6.505a.178.178 0 0 0-.041-.005H6.16c-.088 0-.16.064-.16.143v.52c0 .079.072.143.16.143 1.209 0 1.209 1.388 0 1.388-.088 0-.16.064-.16.143v.52c0 .079.072.143.16.143h1.849a.178.178 0 0 0 .04-.005l5.831-1.357c.16-.037.16-.24 0-.276z"/></g></svg>
